Themes/OneUI/assets/svg/sec_ic_settings_sync.svg

<?xml version="1.0" encoding="UTF-8" standalone="no"?>
<svg
   width="28.000021"
   height="28.000021"
   viewBox="0 0 28.000021 28.000021"
   fill="none"
   version="1.1"
   id="svg2209"
   sodipodi:docname="sec_ic_settings_sync.svg"
   xmlns:inkscape="http://www.inkscape.org/namespaces/inkscape"
   xmlns:sodipodi="http://sodipodi.sourceforge.net/DTD/sodipodi-0.dtd"
   xmlns="http://www.w3.org/2000/svg"
   xmlns:svg="http://www.w3.org/2000/svg">
  <sodipodi:namedview
     id="namedview2211"
     pagecolor="#ffffff"
     bordercolor="#666666"
     borderopacity="1.0"
     inkscape:showpageshadow="2"
     inkscape:pageopacity="0.0"
     inkscape:pagecheckerboard="0"
     inkscape:deskcolor="#d1d1d1" />
  <g
     clip-path="url(#clip0_1_1433)"
     id="g2202">
    <path
       d="M 24.856,3.14401 C 23.13,1.52161 20.7739,0.601214 18.1738,0.256914 15.6907,-0.072186 14,0.00881404 14,0.00881404 c 0,0 -1.691,-0.08100004 -4.17421,0.24809996 -2.6,0.3443 -4.956,1.264696 -6.6815,2.887096 -1.6228,1.7258 -2.543099,4.0819 -2.887599,6.6819 -0.3291004,2.48299 -0.2478004,4.17399 -0.2478004,4.17399 0,0 -0.0813,1.6908 0.2478004,4.174 0.3445,2.5998 1.264799,4.9561 2.887399,6.6819 1.7257,1.6226 4.0817,2.5428 6.6817,2.8875 C 12.309,28.0722 14,27.9912 14,27.9912 c 0,0 1.6907,0.081 4.1738,-0.2479 2.6001,-0.3447 4.9562,-1.2649 6.6818,-2.8875 1.623,-1.7258 2.5432,-4.0821 2.8877,-6.6819 0.3289,-2.4832 0.2479,-4.174 0.2479,-4.174 0,0 0.081,-1.691 -0.2479,-4.17399 -0.3445,-2.6 -1.2647,-4.9561 -2.8873,-6.6819 z"
       fill="#4772e6"
       id="path2198" />
    <path
       d="m 15.3346,7.45776 c 0.1594,-0.4429 0.6229,-0.6886 1.0714,-0.589 l 0.1116,0.0322 0.252,0.096 c 2.8279,1.1372 4.7073,3.91694 4.7073,7.00324 0,2.011 -0.8,3.9216 -2.1898,5.3259 l -0.2141,0.2069 0.6947,5e-4 c 0.4347,0 0.7996,0.3002 0.8985,0.7045 l 0.0203,0.1127 0.0062,0.1078 c 0,0.4216 -0.2839,0.783 -0.6954,0.8936 l -0.1153,0.0239 -0.1143,0.0075 h -2.9258 c -0.6334,0 -1.1713,-0.4477 -1.3005,-1.0654 L 15.52,20.1832 15.5135,20.0552 v -2.7433 c 0,-0.5109 0.4137,-0.925 0.925,-0.925 0.4216,0 0.783,0.2839 0.8936,0.6954 l 0.0239,0.1153 0.0075,0.1143 -5e-4,1.2411 0.1437,-0.1096 c 1.1919,-0.962 1.955,-2.3791 2.0963,-3.9217 l 0.0185,-0.2735 0.0054,-0.248 c 0,-2.3991 -1.5021,-4.55344 -3.7338,-5.35824 -0.4821,-0.1713 -0.7314,-0.7025 -0.5585,-1.1842 z m -4.1765,-0.8413 c 0.6341,0 1.1721,0.4478 1.3014,1.066 l 0.0213,0.135 0.0065,0.1281 v 2.74174 c 0,0.5109 -0.4137,0.925 -0.925,0.925 -0.4215,0 -0.7829,-0.2839 -0.8936,-0.6954 l -0.0238,-0.1153 -0.0076,-0.1143 -3e-4,-1.24334 -0.1433,0.1109 C 9.3012,10.5167 8.5383,11.9338 8.397,13.4778 l -0.0185,0.2737 -0.0054,0.2483 c 0,2.3996 1.5018,4.5524 3.7356,5.3576 0.4808,0.1727 0.7295,0.7019 0.5567,1.183 -0.1331,0.3703 -0.4831,0.6119 -0.8706,0.6119 -0.1058,0 -0.2114,-0.018 -0.3134,-0.0544 -2.9666,-1.0688 -4.9583,-3.9209 -4.9583,-7.0981 0,-2.0111 0.8,-3.9222 2.1893,-5.32624 L 8.9252,8.46675 8.2331,8.46646 c -0.5107,0 -0.925,-0.4144 -0.925,-0.925 0,-0.4216 0.2839,-0.783 0.6954,-0.8936 l 0.1153,-0.0239 0.1143,-0.0075 z"
       fill="#ffffff"
       id="path2200" />
  </g>
  <defs
     id="defs2207">
    <clipPath
       id="clip0_1_1433">
      <rect
         width="28"
         height="28"
         fill="#ffffff"
         id="rect2204"
         x="0"
         y="0" />
    </clipPath>
  </defs>
</svg>

<svg width="28" height="28" viewBox="0 0 28 28" fill="none" xmlns="http://www.w3.org/2000/svg">
<g clip-path="url(#clip0_1_1433)">
<path d="M24.856 3.14401C23.13 1.52161 20.7739 0.601214 18.1738 0.256914C15.6907 -0.072186 14 0.00881404 14 0.00881404C14 0.00881404 12.309 -0.072186 9.82579 0.256914C7.22579 0.601214 4.86979 1.52161 3.14429 3.14401C1.52149 4.86981 0.601191 7.22591 0.256691 9.82591C-0.0724094 12.3089 0.0088906 13.9999 0.0088906 13.9999C0.0088906 13.9999 -0.0724094 15.6907 0.256691 18.1739C0.601191 20.7737 1.52149 23.13 3.14409 24.8558C4.86979 26.4784 7.22579 27.3986 9.82579 27.7433C12.309 28.0722 14 27.9912 14 27.9912C14 27.9912 15.6907 28.0722 18.1738 27.7433C20.7739 27.3986 23.13 26.4784 24.8556 24.8558C26.4786 23.13 27.3988 20.7737 27.7433 18.1739C28.0722 15.6907 27.9912 13.9999 27.9912 13.9999C27.9912 13.9999 28.0722 12.3089 27.7433 9.82591C27.3988 7.22591 26.4786 4.86981 24.856 3.14401Z" fill="#4772E6"/>
<path d="M15.3346 7.45776C15.494 7.01486 15.9575 6.76916 16.406 6.86876L16.5176 6.90096L16.7696 6.99696C19.5975 8.13416 21.4769 10.9139 21.4769 14.0002C21.4769 16.0112 20.6769 17.9218 19.2871 19.3261L19.073 19.533L19.7677 19.5335C20.2024 19.5335 20.5673 19.8337 20.6662 20.238L20.6865 20.3507L20.6927 20.4585C20.6927 20.8801 20.4088 21.2415 19.9973 21.3521L19.882 21.376L19.7677 21.3835H16.8419C16.2085 21.3835 15.6706 20.9358 15.5414 20.3181L15.52 20.1832L15.5135 20.0552V17.3119C15.5135 16.801 15.9272 16.3869 16.4385 16.3869C16.8601 16.3869 17.2215 16.6708 17.3321 17.0823L17.356 17.1976L17.3635 17.3119L17.363 18.553L17.5067 18.4434C18.6986 17.4814 19.4617 16.0643 19.603 14.5217L19.6215 14.2482L19.6269 14.0002C19.6269 11.6011 18.1248 9.44676 15.8931 8.64196C15.411 8.47066 15.1617 7.93946 15.3346 7.45776ZM11.1581 6.61646C11.7922 6.61646 12.3302 7.06426 12.4595 7.68246L12.4808 7.81746L12.4873 7.94556V10.6873C12.4873 11.1982 12.0736 11.6123 11.5623 11.6123C11.1408 11.6123 10.7794 11.3284 10.6687 10.9169L10.6449 10.8016L10.6373 10.6873L10.637 9.44396L10.4937 9.55486C9.3012 10.5167 8.5383 11.9338 8.397 13.4778L8.3785 13.7515L8.3731 13.9998C8.3731 16.3994 9.8749 18.5522 12.1087 19.3574C12.5895 19.5301 12.8382 20.0593 12.6654 20.5404C12.5323 20.9107 12.1823 21.1523 11.7948 21.1523C11.689 21.1523 11.5834 21.1343 11.4814 21.0979C8.5148 20.0291 6.5231 17.177 6.5231 13.9998C6.5231 11.9887 7.3231 10.0776 8.7124 8.67356L8.9252 8.46675L8.2331 8.46646C7.7224 8.46646 7.3081 8.05206 7.3081 7.54146C7.3081 7.11986 7.592 6.75846 8.0035 6.64786L8.1188 6.62396L8.2331 6.61646H11.1581Z" fill="white"/>
</g>
<defs>
<clipPath id="clip0_1_1433">
<rect width="28" height="28" fill="white"/>
</clipPath>
</defs>
</svg>
